!!!!SEGMENT: pl-kc--40102-iii-1-saf--001-038_zielenski-mikolaj--offertoria-totius-anni-in-festo-s-ignatij-episcopi-et-martyris-gloria-et-honore.krn
!!!cenid: 16xx:1516
!!!COM: Zieleński, Mikołaj
!!!COM-rismid: pe30013481
!!!CDT:
!!!CNT: Polish
!!!GTL: Offertoria totius anni
!!!OTL: In festo S. Ignatij Episcopi et Martyris/Gloria et honore
!!!OMV: 038
!!!PDT: 1611
!!!AGN:
!!!SMS-siglum: PL-Kc
!!!SMS-shelfmark: 40102 III/1 Saf.
!!!SMS-shelfwork: 001-038 G
!!!SMS-variant:
!!!SMS-altvar:
!!!NIFC-rismid: 990069886
!!!URL-scan: https://cyfrowe.mnk.pl/dlibra/publication/24235/edition/23926/content?ref=desc
!!!ONB-nifc: UWAGA: str. 34-35. Uwaga: W xml metrum 2/1 do źródłowego C| i odpowiednio 3/1 do 3/2
**kern	**kern	**kern	**kern
*group1	*group1	*group1	*group1
*part4	*part3	*part2	*part1
*staff4	*staff3	*staff2	*staff1
*I""Organo	*I""Organo	*I""Organo	*I""Organo
*I''org	*I''org	*I''org	*I''org
*Iorg	*Iorg	*Iorg	*Iorg
*ICklav	*ICklav	*ICklav	*ICklav
*clefF4	*clefC3	*clefC3	*clefC1
*k[b-]	*k[b-]	*k[b-]	*k[b-]
*g:	*g:	*g:	*g:
*M2/1	*M2/1	*M2/1	*M2/1
*met(C|)	*met(C|)	*met(C|)	*met(C|)
=1	=1	=1	=1
!	!	!LO:TX:a:t=Gloria & honore.	!LO:TX:a:t=In feſto S. Ignatij Epiſcopi, & Martyris. A 7.
2.D/	2.d\	00r	00r
4D/	4d\	.	.
2BB-/	2d\	.	.
1AA	4c/	.	.
.	4B-/	.	.
=2-	=2-	=2-	=2-
.	2c/	.	.
2D/	2A/	.	.
4GG/	1B-	.	.
4AA/	.	.	.
4BB-/	.	.	.
4GG/	.	.	.
=3	=3	=3	=3
2D/	2A/	00r	00r
2.AA/	2.c/	.	.
4BB-/	8B-/	.	.
.	8A/	.	.
4C/	4G/	.	.
8BB-/	4A/	.	.
8AA/	.	.	.
=4-	=4-	=4-	=4-
2.GG/	4B-/	.	.
.	4c/	.	.
.	2.d\	.	.
4AA/	.	.	.
4BB-/	.	.	.
4C/	8c/	.	.
.	8B-/	.	.
2D/	4A/	.	.
.	4B-/	.	.
=5	=5	=5	=5
2.AA/	4c/	00r	00r
.	4d\	.	.
.	2e\	.	.
4GG/	.	.	.
2FF/	2f\	.	.
2GG/	4e\	.	.
.	4d\	.	.
=6-	=6-	=6-	=6-
2AA/	4c/	.	.
.	4A/	.	.
2DD/	2.d\	.	.
1AA	.	.	.
.	8c#X/	.	.
!	!LO:SIC:v:s=8Bn/	!	!
.	8B-/	.	.
.	2c#/	.	.
=7	=7	=7	=7
1DD	1d	2.d\	2.a\
.	.	4d\	4a\
1r	1r	2B-/	2dd\
.	.	1A	4cc\
.	.	.	4b-\
=8-	=8-	=8-	=8-
0r	0r	.	2cc\
.	.	2d\	2a\
.	.	4G/	1b-
.	.	4A/	.
.	.	4B-/	.
.	.	4G/	.
=9	=9	=9	=9
0r	0r	2d\	2a\
.	.	2.A/	2.cc\
.	.	4B-/	8b-\
.	.	.	8a\
.	.	4c/	4g/
.	.	8B-/	4a\
.	.	8A/	.
*custos:AA	*custos:a	*custos:G	*custos:b
!!LO:LB:g=original
=10-	=10-	=10-	=10-
0r	0r	2.G/	4b-\
.	.	.	4cc\
.	.	.	2.dd\
.	.	4A/	.
.	.	4B-/	.
.	.	4c\	8cc\
.	.	.	8b-\
.	.	2d\	4a\
.	.	.	4b-\
=11	=11	=11	=11
0r	0r	2.A/	4cc\
.	.	.	4dd\
.	.	.	2ee\
.	.	4G/	.
.	.	2F/	2ff\
.	.	2G/	4ee\
.	.	.	4dd\
=12-	=12-	=12-	=12-
2r	1r	1A	4cc#X\
.	.	.	4a\
2ryy	.	.	2.dd\
2.AA/	2.a\	1A	.
.	.	.	8cc#X\
!	!	!	!LO:SIC:v:s=8bn\
.	.	.	8b-\
.	.	.	2cc#\
4AA/	4g\	.	.
=13	=13	=13	=13
2DD/	4f\	2A/	1dd
.	4e\	.	.
1BB-	4d\	2r	.
.	4c/	.	.
.	2d\	0r	0r
2AA/	2c/	.	.
=14-	=14-	=14-	=14-
1GG	1g	.	.
1FF	1c	2r	2r
.	.	[y2F/	[y2cc\
=15	=15	=15	=15
!	!	!LO:N:xstem:cue	!LO:N:xstem:cue
0r	0r	4F/]	4cc\]
.	.	4F/	4cc\
.	.	2f\	2cc\
.	.	2d\	2dd\
.	.	2e-X\	2b-\
=16-	=16-	=16-	=16-
1r	1r	1c	2.cc\
.	.	.	4b-\
2r	2r	2d\	2a\
[y2D/	[y2d\	[y2f\	[y2dd\
=17	=17	=17	=17
!LO:N:xstem:cue	!LO:N:xstem:cue	!LO:N:xstem:cue	!LO:N:xstem:cue
4D/]	4d\]	4f\]	4dd\]
4D/	4d\	4f\	4dd\
2D/	2f\	2d\	2dd\
2BB-/	2F/	2d\	2ff\
2C/	2c/	2g\	2ee\
=18-	=18-	=18-	=18-
1GG	1g	2.g\	1dd
.	.	4f\	.
1C	1g	2e\	2cc\
.	.	[<2c/	[<2g/
=19	=19	=19	=19
0r	0r	2c/]	2g/]
.	.	2A/	2cc\
.	.	2B-/	2b-\
.	.	2G/	2b-\
=20-	=20-	=20-	=20-
1r	1r	2d\	1a
.	.	2D/	.
2r	2r	1G	1g
[<2G\	[<2d\	.	.
=21	=21	=21	=21
2G\]	2d\]	0r	0r
2E\	2g\	.	.
2F\	4f\	.	.
.	4e\	.	.
2C/	4e\	.	.
.	8d\	.	.
.	8c\	.	.
=22-	=22-	=22-	=22-
2G\	4d\	1r	1r
.	4e\	.	.
2GG/	2d\	.	.
2C/	2e\	2r	2r
[<2C/	[<2c/	[<2g\	[<2ee\
=23	=23	=23	=23
2C/]	2c/]	2g\]	2ee\]
2AA/	2c/	2a\	2ff\
2BB-/	2F/	2f\	2dd\
2GG/	2B-/	2g\	2dd\
=24--	=24-	=24-	=24-
2AA/	0c	2.e\	2.cc\
4GG/	.	.	.
4FF/	.	4f\	4dd\
[<1C	.	2g\	4ee\
.	.	.	4cc\
.	.	2a\	[y2ff\
=25	=25	=25	=25
!	!	!	!LO:N:xstem:cue
1C]	1c	1g	4ff\]
.	.	.	8ee\
.	.	.	8dd\
.	.	.	2ee\
1FF	1c	1a	1ff
=26	=26	=26	=26
*M3/2	*M3/2	*M3/2	*M3/2
00.r	00.r	1.f	1.cc
.	.	2f\	2cc\
.	.	1d	1dd
=27-	=27-	=27-	=27-
.	.	1c	1ee
.	.	1A	1ee
.	.	1d	1ff
=28-	=28-	=28-	=28-
00.r	00.r	0B-	0dd
.	.	1A	1cc
=29-	=29-	=29-	=29-
.	.	1.d	1.ff
.	.	2c/	2ee\
.	.	1B-	1dd
=30	=30	=30	=30
00.r	00.r	1.c	1.ee
.	.	2B-/	2dd\
.	.	1A	1cc
=31-	=31-	=31-	=31-
.	.	1.B-	1.dd
.	.	2A/	2cc\
.	.	1G	1b-
=32-	=32-	=32-	=32-
0.r	0.r	1e	1b-
.	.	0c	1.cc
.	.	.	2b-\
=33-	=33-	=33-	=33-
*M2/1	*M2/1	*M2/1	*M2/1
*met(C|)	*met(C|)	*met(C|)	*met(C|)
1r	1r	2d\	2a\
.	.	2B-/	2dd\
=34	=34	=34	=34
00r	00r	2B-/	2dd\
.	.	4A/	4cc\
.	.	4G/	4b-\
.	.	2F/	4cc\
.	.	.	4b-\
.	.	2G/	4b-\
.	.	.	8a\
.	.	.	8g\
=35-	=35-	=35-	=35-
.	.	2.d\	4a\
.	.	.	4g/
.	.	.	4f/
.	.	4c/	4e/
.	.	1B-	2d/
.	.	.	[y2dd\
*custos:D	*custos:A	*custos:A	*custos:cc
!!LO:PB:g=original
=36	=36	=36	=36
!	!	!	!LO:N:xstem:cue
0r	0r	2.A/	4dd\]
.	.	.	8cc#X\
!	!	!	!LO:SIC:v:s=8bn\
.	.	.	8b-\
.	.	.	2cc#\
.	.	4A/	.
.	.	1d	1dd
=37	=37	=37	=37
*M3/2	*M3/2	*M3/2	*M3/2
1.D	1.A	00.r	00.r
2D/	2A/	.	.
1BB-	1B-	.	.
=38-	=38-	=38-	=38-
1AA	1c	.	.
1AA	1c	.	.
1D	1A	.	.
=39	=39	=39	=39
0GG	1.B-	00.r	00.r
.	2A/	.	.
1C	1G	.	.
=40-	=40-	=40-	=40-
0AA	1.c	.	.
.	2B-/	.	.
1D	1A	.	.
=41-	=41-	=41-	=41-
1.BB-	1.d	00.r	00.r
2AA/	2c/	.	.
1GG	1B-	.	.
=42-	=42-	=42-	=42-
1.E	1.B-	.	.
2D/	2B-/	.	.
1C	1e	.	.
=43	=43	=43	=43
1BB-	1d	0.r	0.r
1F	0c	.	.
1FF	.	.	.
=44-	=44-	=44-	=44-
*M2/1	*M2/1	*M2/1	*M2/1
*met(C|)	*met(C|)	*met(C|)	*met(C|)
2BB-/	2B-/	1r	1r
1BB-	1d	.	.
=45-	=45-	=45-	=45-
.	.	0r	0r
4AA/	4c/	.	.
4GG/	4B-/	.	.
2FF/	4c/	.	.
.	4B-/	.	.
2GG/	4B-/	.	.
.	8A/	.	.
.	8G/	.	.
=46	=46	=46	=46
2.D/	2A/	0r	0r
.	2A/	.	.
4D/	.	.	.
1GG	1G	.	.
=47	=47	=47	=47
*M3/2	*M3/2	*M3/2	*M3/2
0.r	0.r	1.G	1.dd
.	.	2G/	2dd\
.	.	1d	1a
=48-	=48-	=48-	=48-
1.GG	1.B-	1d	1b-
.	.	1d	1b-
2GG/	2G/	.	.
1D	1A	1d	1a
=49-	=49-	=49-	=49-
1GG	1B-	0d	0g
1GG	1B-	.	.
1D	1A	1d	1a
=50-	=50-	=50-	=50-
2GG/	0B-	0.r	0.r
2AA/	.	.	.
2BB-/	.	.	.
2GG/	.	.	.
1D	1A	.	.
=51	=51	=51	=51
0.r	0.r	1.G	1.dd
.	.	2G/	2dd\
.	.	1d	1a
=52-	=52-	=52-	=52-
1.GG	1.B-	1d	1b-
.	.	1d	1b-
2GG/	2G/	.	.
1D	1A	1d	1a
=53-	=53-	=53-	=53-
1GG	1B-	0d	0g
1GG	1B-	.	.
1D	1A	1d	1a
=54-	=54-	=54-	=54-
2GG/	0B-	0.r	0.r
2AA/	.	.	.
2BB-/	.	.	.
2GG/	.	.	.
1D	1A	.	.
=55	=55	=55	=55
1.BB-	1.B-	1.f	1.dd
2BB-/	2B-/	2f\	2dd\
1GG	1B-	1g	1ee
=56-	=56-	=56-	=56-
1FF	1F	1a	1ff
1FF	1c	1a	1ff
1C	1c	1g	1ee
=57-	=57-	=57-	=57-
0GG	1.g	0g	0dd
.	2f\	.	.
1C	1e	1g	1cc
=58-	=58-	=58-	=58-
1.C	0c	0g	0ee
2BB-/	.	.	.
1AA	1c	1a	1ff
=59	=59	=59	=59
1.BB-	1F	1f	1.dd
.	1B-	1d	.
2AA/	.	.	2cc\
1GG	1d	1g	1b-
=60-	=60-	=60-	=60-
1.AA	1A	1c	1.cc
.	1A	1c	.
2GG/	.	.	2b-\
1FF	1A	1c	1a
=61-	=61-	=61-	=61-
1DD	1d	1f	1a
0GG	1B-	0d	0b-
.	2A/	.	.
.	2G/	.	.
=62-	=62-	=62-	=62-
*M2/1	*M2/1	*M2/1	*M2/1
*met(C|)	*met(C|)	*met(C|)	*met(C|)
2DD/	1d	2d\	2a\
[>2BB-/	.	[<2f\	[<2dd\
=63	=63	=63	=63
2BB-/]	1.d	2f\]	2dd\]
4AA/	.	2g\	4cc\
4GG/	.	.	4b-\
2FF/	.	2a\	4cc\
.	.	.	4b-\
2GG/	2d\	2d\	4b-\
.	.	.	8a\
.	.	.	8g\
=64-	=64-	=64-	=64-
1.DD	1d	2d\	2a\
.	.	1d	2b-\
.	1r	.	2.a\
2DD/	.	2d\	.
.	.	.	4a\
=65	=65	=65	=65
2GG/	2r	0d	2b-\
2.GG/	2.d\	.	4g/
.	.	.	4a\
.	.	.	4b-\
4AA/	4c/	.	4cc\
4BB-/	1B-	.	1dd
4C/	.	.	.
=66-	=66-	=66-	=66-
2D/	.	0d	.
2D/	2A/	.	2a\
1GG	4d\	.	2b-\
.	4c/	.	.
.	4B-/	.	[y2dd\
.	4A/	.	.
*custos:GG	*custos:G	*custos:d	*custos:cc
!!LO:LB:g=original
=67	=67	=67	=67
!	!	!	!LO:N:xstem:cue
1.GG	2G/	0d	4dd\]
.	.	.	4cc\
.	1G	.	4b-\
.	.	.	4a\
.	.	.	2b-\
2GG/	2d\	.	2b-\
=68-	=68-	=68-	=68-
0DDl	0dl	0dl	0al
==	==	==	==
*-	*-	*-	*-
!!!system-decoration: *
!!!RDF**kern: > = above
!!!RDF**kern: < = below
!!!RDF**kern: l = terminal long
!!!ENC: Andrzej Gręziak
!!!END: 2021-12-15
!!!ENC: Andrzej Kubiczek
!!!END: 2021-12-21
